X:1
T: Mrs. Major Mitchell's Strathspey
C:William Marshall
R:Strathspey
Q: 128
K:F
M:4/4
L:1/16
|:C2|F4 A2GA FC3 C2DE|FF3 A3G F4 F2GA|B3A B3c d3f f3d|c3A BAGF D4 D2C2|
F4 A2GA FC3 C2DE|FF3 A3G F4 F2GA|B3A B3c d3f f3d|c3A BAGF D4 D2B2|
c3d c3A c3d c3A|c3d f2ga g4 ga3|f3g a3g fd3 df3|c3A BAGF D4 D2b2|
c3d c3A c3d c3A|c3d f2ga g4 ga3|f3g a3g fd3 df3|c3A BAGF D4 D2:|
